X: 1
T: Christians Gykel
T: Peters Gykel
N: The dance is a Danish version of Circassian Circle
R: reel
Z: 2007 John Chambers <jc:trillian.mit.edu>
S: handwritten MS of unknown origin labelled "309"
M: 4/4
L: 1/8
K: G
|| "G"GB/B/ Bd "C"(3efg "G"d2 | "C"(3efg "G"dB BA "D7"A2 \
 | "G"GB/B/ Bd "C"(3efg "G"d2 | "C"(3efg "D7"fd "G"[g2B2] [g2B2] ||
|| "C"ge/e/ ee "G"gd/d/ dB | "D7"dAA Ac "G"BG G2 \
 | "C"ge/e/ ee "G"gd/d/ d2 | "A7"AA Ag fe "D"[d2F2] ||
|| "G"GB/B/ Bd "C"(3efg "G"d2 | "C"(3efg "G"dB BA "D7"A2 \
 | "G"GB/B/ Bd "C"(3efg "G"d2 | "C"(3efg "D7"fd "G"[g2B2] [g2B2] ||[K:C=f]
|| "C"c2 ee g2 fe | "G7"ed AB "C"dc G2 \
 | "C(Am)"c2 ee "F(Dm)"a2 "G"g2 | "G7"f e2 d "C"c2 z2 |]

%%sep 2 1 500

